Newaita-dark/apps/48/labplot.svg

<svg height="48" viewBox="0 0 48 48" width="48" xmlns="http://www.w3.org/2000/svg" xmlns:xlink="http://www.w3.org/1999/xlink"><linearGradient id="a" gradientUnits="userSpaceOnUse" x1="23.81478" x2="23.81478" y1="42.0509045" y2="44.03547050005"><stop offset="0" stop-opacity=".27451"/><stop offset="1" stop-opacity="0"/></linearGradient><linearGradient id="b"><stop offset="0" stop-opacity=".313726"/><stop offset=".222222" stop-opacity=".27451"/><stop offset="1" stop-opacity="0"/></linearGradient><radialGradient id="c" cx="450.908936" cy="189.579361" gradientTransform="matrix(.00000026 -.117199 -.210958 -.00000015 79.684395 95.392999)" gradientUnits="userSpaceOnUse" r="21.166656" xlink:href="#b"/><radialGradient id="d" cx="450.908936" cy="189.579361" gradientTransform="matrix(-.00000026 .117199 .210958 .00000015 -31.80678 -11.291218)" gradientUnits="userSpaceOnUse" r="21.166656" xlink:href="#b"/><radialGradient id="e" cx="450.908936" cy="189.579361" gradientTransform="matrix(-.00000026 -.117199 .210958 -.00000015 -31.80678 95.392999)" gradientUnits="userSpaceOnUse" r="21.166656" xlink:href="#b"/><radialGradient id="f" cx="450.908936" cy="189.579361" gradientTransform="matrix(.00000026 .117199 -.210958 .00000015 79.684393 -11.291219)" gradientUnits="userSpaceOnUse" r="21.166656" xlink:href="#b"/><linearGradient id="g" gradientUnits="userSpaceOnUse" x1="23.814786" x2="23.814786" y1="42.0509015" y2="4.3441580001"><stop offset="0" stop-color="#a1887f"/><stop offset="1" stop-color="#bcaaa4"/></linearGradient><linearGradient id="h" gradientTransform="matrix(.0848295 0 0 .0838896 2.268074 20.478107)" gradientUnits="userSpaceOnUse" x1="254" x2="254" y1="233.5" y2="-168.666656"><stop offset="0" stop-color="#424242"/><stop offset="1" stop-color="#616161"/></linearGradient><path d="m7.691406 42.050781h32.496094v1.984375h-32.496094zm0 0" fill="url(#a)"/><path d="m40.1875 42.050781h3.96875v-1.984375h-3.96875zm0 0" fill="url(#c)"/><path d="m7.691406 42.050781h-3.96875v1.984375h3.96875zm0 0" fill="url(#d)"/><path d="m7.691406 42.050781h-3.96875v-1.984375h3.96875zm0 0" fill="url(#e)"/><path d="m40.1875 42.050781h3.96875v1.984375h-3.96875zm0 0" fill="url(#f)"/><path d="m4.960938 4.34375h37.707031c1.097656 0 1.984375.890625 1.984375 1.984375v33.738281c0 1.097656-.886719 1.984375-1.984375 1.984375h-37.707031c-1.09375 0-1.984376-.886719-1.984376-1.984375v-33.738281c0-1.09375.890626-1.984375 1.984376-1.984375zm0 0" fill="url(#g)"/><path d="m4.960938 4.34375c-1.097657 0-1.984376.886719-1.984376 1.984375v.496094c0-1.097657.886719-1.984375 1.984376-1.984375h37.707031c1.101562 0 1.984375.886718 1.984375 1.984375v-.496094c0-1.097656-.882813-1.984375-1.984375-1.984375zm0 0" fill="#fbfbfb" fill-opacity=".392157"/><path d="m4.960938 42.050781c-1.097657 0-1.984376-.886719-1.984376-1.984375v-.496094c0 1.097657.886719 1.984376 1.984376 1.984376h37.707031c1.101562 0 1.984375-.886719 1.984375-1.984376v.496094c0 1.097656-.882813 1.984375-1.984375 1.984375zm0 0" fill-opacity=".235294"/><path d="m4.960938 4.203125c-1.175782 0-2.125.949219-2.125 2.125v33.738281c0 1.175782.949218 2.125 2.125 2.125h37.707031c1.175781 0 2.125-.949218 2.125-2.125v-33.738281c0-1.175781-.949219-2.125-2.125-2.125zm0 .28125h37.707031c1.023437 0 1.84375.820313 1.84375 1.84375v33.738281c0 1.023438-.820313 1.84375-1.84375 1.84375h-37.707031c-1.023438 0-1.84375-.820312-1.84375-1.84375v-33.738281c0-1.023437.820312-1.84375 1.84375-1.84375zm0 0" fill="#212121"/><path d="m6.449219 6.328125h34.730469c.820312 0 1.488281.667969 1.488281 1.488281v30.761719c0 .820313-.667969 1.488281-1.488281 1.488281h-34.730469c-.820313 0-1.488281-.667968-1.488281-1.488281v-30.761719c0-.820312.667968-1.488281 1.488281-1.488281zm0 0" fill="url(#h)"/><path d="m4.960938 38.578125v.496094c0 .824219.664062 1.488281 1.488281 1.488281h34.730469c.824218 0 1.488281-.664062 1.488281-1.488281v-.496094c0 .824219-.664063 1.488281-1.488281 1.488281h-34.730469c-.824219 0-1.488281-.664062-1.488281-1.488281zm0 0" fill="#fff" fill-opacity=".392157"/><path d="m6.449219 6.328125c-.824219 0-1.488281.664063-1.488281 1.488281v.746094c0-.824219.664062-1.488281 1.488281-1.488281h34.730469c.824218 0 1.488281.664062 1.488281 1.488281v-.746094c0-.824218-.664063-1.488281-1.488281-1.488281zm0 0" fill-opacity=".235294"/><g fill="none" stroke-linecap="round" stroke-linejoin="round" transform="matrix(.093759 0 0 .093759 0 20.158175)"><path d="m68.785098-147.506445h370.42296c8.749164 0 15.873484 7.124319 15.873484 15.873484v328.093668c0 8.749165-7.12432 15.873485-15.873484 15.873485h-370.42296c-8.749164 0-15.873484-7.12432-15.873484-15.873485v-328.093668c0-8.749165 7.12432-15.873484 15.873484-15.873484zm0 0" stroke="#212121" stroke-width="3"/><path d="m428.625735 32.434704h-333.38483" stroke="#fff" stroke-opacity=".922581" stroke-width="7"/><path d="m428.625735 21.852382c-58.202775 0-108.48964-116.363888-162.73446-117.655431-54.24482-1.333206-107.156433 117.655431-170.65037 117.655431" stroke="#fff" stroke-opacity=".909677" stroke-width="7"/><path d="m428.625735 43.017027c-58.202775 0-108.48964 116.322225-162.73446 117.655431-54.24482 1.291544-107.156433-117.655431-170.65037-117.655431" stroke="#fff" stroke-opacity=".392157" stroke-width="7"/><path d="m428.625735 21.852382c-58.202775 0-109.11458-72.243101-163.3594-73.534645-54.24482-1.333206-106.531493 73.534645-170.02543 73.534645" stroke="#ffa726" stroke-width="7"/><path d="m95.240905-105.177154v275.182055" stroke="#fff" stroke-opacity=".922581" stroke-width="7.138627"/><path d="m264.599732 21.852382v21.164645" stroke="#fff" stroke-opacity=".922581" stroke-width="7.138627"/><path d="m179.899487 21.852382v21.164645" stroke="#fff" stroke-opacity=".922581" stroke-width="7.138627"/><path d="m343.967153 21.852382v21.164645" stroke="#fff" stroke-opacity=".922581" stroke-width="7.138627"/></g></svg>

<?xml version="1.0" encoding="UTF-8"?>
<svg xmlns="http://www.w3.org/2000/svg" xmlns:xlink="http://www.w3.org/1999/xlink" width="48px" height="48px" viewBox="0 0 48 48" version="1.1">
<defs>
<linearGradient id="linear0" gradientUnits="userSpaceOnUse" x1="254" y1="233.5" x2="254" y2="254.666672" gradientTransform="matrix(0.093759,0,0,0.093759,-0.00000572259,20.158178)">
<stop offset="0" style="stop-color:rgb(0%,0%,0%);stop-opacity:0.27451;"/>
<stop offset="1" style="stop-color:rgb(0%,0%,0%);stop-opacity:0;"/>
</linearGradient>
<radialGradient id="radial0" gradientUnits="userSpaceOnUse" cx="450.908936" cy="189.579361" fx="450.908936" fy="189.579361" r="21.166656" gradientTransform="matrix(0.000000261256,-0.117199,-0.210958,-0.000000152308,79.684395,95.392999)">
<stop offset="0" style="stop-color:rgb(0%,0%,0%);stop-opacity:0.313726;"/>
<stop offset="0.222222" style="stop-color:rgb(0%,0%,0%);stop-opacity:0.27451;"/>
<stop offset="1" style="stop-color:rgb(0%,0%,0%);stop-opacity:0;"/>
</radialGradient>
<radialGradient id="radial1" gradientUnits="userSpaceOnUse" cx="450.908936" cy="189.579361" fx="450.908936" fy="189.579361" r="21.166656" gradientTransform="matrix(-0.000000261256,0.117199,0.210958,0.000000152308,-31.80678,-11.291218)">
<stop offset="0" style="stop-color:rgb(0%,0%,0%);stop-opacity:0.313726;"/>
<stop offset="0.222222" style="stop-color:rgb(0%,0%,0%);stop-opacity:0.27451;"/>
<stop offset="1" style="stop-color:rgb(0%,0%,0%);stop-opacity:0;"/>
</radialGradient>
<radialGradient id="radial2" gradientUnits="userSpaceOnUse" cx="450.908936" cy="189.579361" fx="450.908936" fy="189.579361" r="21.166656" gradientTransform="matrix(-0.000000261256,-0.117199,0.210958,-0.000000152308,-31.80678,95.392999)">
<stop offset="0" style="stop-color:rgb(0%,0%,0%);stop-opacity:0.313726;"/>
<stop offset="0.222222" style="stop-color:rgb(0%,0%,0%);stop-opacity:0.27451;"/>
<stop offset="1" style="stop-color:rgb(0%,0%,0%);stop-opacity:0;"/>
</radialGradient>
<radialGradient id="radial3" gradientUnits="userSpaceOnUse" cx="450.908936" cy="189.579361" fx="450.908936" fy="189.579361" r="21.166656" gradientTransform="matrix(0.000000261256,0.117199,-0.210958,0.000000152308,79.684393,-11.291219)">
<stop offset="0" style="stop-color:rgb(0%,0%,0%);stop-opacity:0.313726;"/>
<stop offset="0.222222" style="stop-color:rgb(0%,0%,0%);stop-opacity:0.27451;"/>
<stop offset="1" style="stop-color:rgb(0%,0%,0%);stop-opacity:0;"/>
</radialGradient>
<linearGradient id="linear1" gradientUnits="userSpaceOnUse" x1="254" y1="233.5" x2="254" y2="-168.666656" gradientTransform="matrix(0.093759,0,0,0.093759,0,20.158175)">
<stop offset="0" style="stop-color:rgb(63.137257%,53.333336%,49.803922%);stop-opacity:1;"/>
<stop offset="1" style="stop-color:rgb(73.725492%,66.666669%,64.313728%);stop-opacity:1;"/>
</linearGradient>
<linearGradient id="linear2" gradientUnits="userSpaceOnUse" x1="254" y1="233.5" x2="254" y2="-168.666656" gradientTransform="matrix(0.0848295,0,0,0.0838896,2.268074,20.478107)">
<stop offset="0" style="stop-color:rgb(25.882354%,25.882354%,25.882354%);stop-opacity:1;"/>
<stop offset="1" style="stop-color:rgb(38.039216%,38.039216%,38.039216%);stop-opacity:1;"/>
</linearGradient>
</defs>
<g id="surface1">
<path style=" stroke:none;fill-rule:nonzero;fill:url(#linear0);" d="M 7.691406 42.050781 L 40.1875 42.050781 L 40.1875 44.035156 L 7.691406 44.035156 Z M 7.691406 42.050781 "/>
<path style=" stroke:none;fill-rule:nonzero;fill:url(#radial0);" d="M 40.1875 42.050781 L 44.15625 42.050781 L 44.15625 40.066406 L 40.1875 40.066406 Z M 40.1875 42.050781 "/>
<path style=" stroke:none;fill-rule:nonzero;fill:url(#radial1);" d="M 7.691406 42.050781 L 3.722656 42.050781 L 3.722656 44.035156 L 7.691406 44.035156 Z M 7.691406 42.050781 "/>
<path style=" stroke:none;fill-rule:nonzero;fill:url(#radial2);" d="M 7.691406 42.050781 L 3.722656 42.050781 L 3.722656 40.066406 L 7.691406 40.066406 Z M 7.691406 42.050781 "/>
<path style=" stroke:none;fill-rule:nonzero;fill:url(#radial3);" d="M 40.1875 42.050781 L 44.15625 42.050781 L 44.15625 44.035156 L 40.1875 44.035156 Z M 40.1875 42.050781 "/>
<path style=" stroke:none;fill-rule:nonzero;fill:url(#linear1);" d="M 4.960938 4.34375 L 42.667969 4.34375 C 43.765625 4.34375 44.652344 5.234375 44.652344 6.328125 L 44.652344 40.066406 C 44.652344 41.164062 43.765625 42.050781 42.667969 42.050781 L 4.960938 42.050781 C 3.867188 42.050781 2.976562 41.164062 2.976562 40.066406 L 2.976562 6.328125 C 2.976562 5.234375 3.867188 4.34375 4.960938 4.34375 Z M 4.960938 4.34375 "/>
<path style=" stroke:none;fill-rule:nonzero;fill:rgb(98.431373%,98.431373%,98.431373%);fill-opacity:0.392157;" d="M 4.960938 4.34375 C 3.863281 4.34375 2.976562 5.230469 2.976562 6.328125 L 2.976562 6.824219 C 2.976562 5.726562 3.863281 4.839844 4.960938 4.839844 L 42.667969 4.839844 C 43.769531 4.839844 44.652344 5.726562 44.652344 6.824219 L 44.652344 6.328125 C 44.652344 5.230469 43.769531 4.34375 42.667969 4.34375 Z M 4.960938 4.34375 "/>
<path style=" stroke:none;fill-rule:nonzero;fill:rgb(0%,0%,0%);fill-opacity:0.235294;" d="M 4.960938 42.050781 C 3.863281 42.050781 2.976562 41.164062 2.976562 40.066406 L 2.976562 39.570312 C 2.976562 40.667969 3.863281 41.554688 4.960938 41.554688 L 42.667969 41.554688 C 43.769531 41.554688 44.652344 40.667969 44.652344 39.570312 L 44.652344 40.066406 C 44.652344 41.164062 43.769531 42.050781 42.667969 42.050781 Z M 4.960938 42.050781 "/>
<path style=" stroke:none;fill-rule:nonzero;fill:rgb(12.941177%,12.941177%,12.941177%);fill-opacity:1;" d="M 4.960938 4.203125 C 3.785156 4.203125 2.835938 5.152344 2.835938 6.328125 L 2.835938 40.066406 C 2.835938 41.242188 3.785156 42.191406 4.960938 42.191406 L 42.667969 42.191406 C 43.84375 42.191406 44.792969 41.242188 44.792969 40.066406 L 44.792969 6.328125 C 44.792969 5.152344 43.84375 4.203125 42.667969 4.203125 Z M 4.960938 4.484375 L 42.667969 4.484375 C 43.691406 4.484375 44.511719 5.304688 44.511719 6.328125 L 44.511719 40.066406 C 44.511719 41.089844 43.691406 41.910156 42.667969 41.910156 L 4.960938 41.910156 C 3.9375 41.910156 3.117188 41.089844 3.117188 40.066406 L 3.117188 6.328125 C 3.117188 5.304688 3.9375 4.484375 4.960938 4.484375 Z M 4.960938 4.484375 "/>
<path style=" stroke:none;fill-rule:nonzero;fill:url(#linear2);" d="M 6.449219 6.328125 L 41.179688 6.328125 C 42 6.328125 42.667969 6.996094 42.667969 7.816406 L 42.667969 38.578125 C 42.667969 39.398438 42 40.066406 41.179688 40.066406 L 6.449219 40.066406 C 5.628906 40.066406 4.960938 39.398438 4.960938 38.578125 L 4.960938 7.816406 C 4.960938 6.996094 5.628906 6.328125 6.449219 6.328125 Z M 6.449219 6.328125 "/>
<path style=" stroke:none;fill-rule:nonzero;fill:rgb(100%,100%,100%);fill-opacity:0.392157;" d="M 4.960938 38.578125 L 4.960938 39.074219 C 4.960938 39.898438 5.625 40.5625 6.449219 40.5625 L 41.179688 40.5625 C 42.003906 40.5625 42.667969 39.898438 42.667969 39.074219 L 42.667969 38.578125 C 42.667969 39.402344 42.003906 40.066406 41.179688 40.066406 L 6.449219 40.066406 C 5.625 40.066406 4.960938 39.402344 4.960938 38.578125 Z M 4.960938 38.578125 "/>
<path style=" stroke:none;fill-rule:nonzero;fill:rgb(0%,0%,0%);fill-opacity:0.235294;" d="M 6.449219 6.328125 C 5.625 6.328125 4.960938 6.992188 4.960938 7.816406 L 4.960938 8.5625 C 4.960938 7.738281 5.625 7.074219 6.449219 7.074219 L 41.179688 7.074219 C 42.003906 7.074219 42.667969 7.738281 42.667969 8.5625 L 42.667969 7.816406 C 42.667969 6.992188 42.003906 6.328125 41.179688 6.328125 Z M 6.449219 6.328125 "/>
<path style="fill:none;stroke-width:3;stroke-linecap:round;stroke-linejoin:round;stroke:rgb(12.941177%,12.941177%,12.941177%);stroke-opacity:1;stroke-miterlimit:4;" d="M 68.785098 -147.506445 L 439.208058 -147.506445 C 447.957222 -147.506445 455.081542 -140.382126 455.081542 -131.632961 L 455.081542 196.460707 C 455.081542 205.209872 447.957222 212.334192 439.208058 212.334192 L 68.785098 212.334192 C 60.035934 212.334192 52.911614 205.209872 52.911614 196.460707 L 52.911614 -131.632961 C 52.911614 -140.382126 60.035934 -147.506445 68.785098 -147.506445 Z M 68.785098 -147.506445 " transform="matrix(0.093759,0,0,0.093759,0,20.158175)"/>
<path style="fill:none;stroke-width:7;stroke-linecap:round;stroke-linejoin:round;stroke:rgb(100%,100%,100%);stroke-opacity:0.922581;stroke-miterlimit:4;" d="M 428.625735 32.434704 L 95.240905 32.434704 " transform="matrix(0.093759,0,0,0.093759,0,20.158175)"/>
<path style="fill:none;stroke-width:7;stroke-linecap:round;stroke-linejoin:round;stroke:rgb(100%,100%,100%);stroke-opacity:0.909677;stroke-miterlimit:4;" d="M 428.625735 21.852382 C 370.42296 21.852382 320.136095 -94.511506 265.891275 -95.803049 C 211.646455 -97.136255 158.734842 21.852382 95.240905 21.852382 " transform="matrix(0.093759,0,0,0.093759,0,20.158175)"/>
<path style="fill:none;stroke-width:7;stroke-linecap:round;stroke-linejoin:round;stroke:rgb(100%,100%,100%);stroke-opacity:0.392157;stroke-miterlimit:4;" d="M 428.625735 43.017027 C 370.42296 43.017027 320.136095 159.339252 265.891275 160.672458 C 211.646455 161.964002 158.734842 43.017027 95.240905 43.017027 " transform="matrix(0.093759,0,0,0.093759,0,20.158175)"/>
<path style="fill:none;stroke-width:7;stroke-linecap:round;stroke-linejoin:round;stroke:rgb(100%,65.490198%,14.901961%);stroke-opacity:1;stroke-miterlimit:4;" d="M 428.625735 21.852382 C 370.42296 21.852382 319.511155 -50.390719 265.266335 -51.682263 C 211.021515 -53.015469 158.734842 21.852382 95.240905 21.852382 " transform="matrix(0.093759,0,0,0.093759,0,20.158175)"/>
<path style="fill:none;stroke-width:7.138627;stroke-linecap:round;stroke-linejoin:round;stroke:rgb(100%,100%,100%);stroke-opacity:0.922581;stroke-miterlimit:4;" d="M 95.240905 -105.177154 L 95.240905 170.004901 " transform="matrix(0.093759,0,0,0.093759,0,20.158175)"/>
<path style="fill:none;stroke-width:7.138627;stroke-linecap:round;stroke-linejoin:round;stroke:rgb(100%,100%,100%);stroke-opacity:0.922581;stroke-miterlimit:4;" d="M 264.599732 21.852382 L 264.599732 43.017027 " transform="matrix(0.093759,0,0,0.093759,0,20.158175)"/>
<path style="fill:none;stroke-width:7.138627;stroke-linecap:round;stroke-linejoin:round;stroke:rgb(100%,100%,100%);stroke-opacity:0.922581;stroke-miterlimit:4;" d="M 179.899487 21.852382 L 179.899487 43.017027 " transform="matrix(0.093759,0,0,0.093759,0,20.158175)"/>
<path style="fill:none;stroke-width:7.138627;stroke-linecap:round;stroke-linejoin:round;stroke:rgb(100%,100%,100%);stroke-opacity:0.922581;stroke-miterlimit:4;" d="M 343.967153 21.852382 L 343.967153 43.017027 " transform="matrix(0.093759,0,0,0.093759,0,20.158175)"/>
</g>
</svg>
